!!!COM: Bach, Johann Sebastian
!!!CDT: 1685/02/21/-1750/07/28/
!!!OTL@@DE: Schm&uuml;cke dich, o liebe Seele
!!!SCT: BWV 180/7
!!!PC#: 22
!!!AGN: chorale
**harm	**kern	**kern	**kern	**kern
*	*ICvox	*ICvox	*ICvox	*ICvox
*	*Ibass	*Itenor	*Ialto	*Isoprn
*	*I"Bass	*I"Tenor	*I"Alto	*I"Soprano
*>[A,A,B]	*>[A,A,B]	*>[A,A,B]	*>[A,A,B]	*>[A,A,B]
*>norep[A,B]	*>norep[A,B]	*>norep[A,B]	*>norep[A,B]	*>norep[A,B]
*>A	*>A	*>A	*>A	*>A
*	*	*oclefC4	*oclefC3	*oclefC1
*	*clefF4	*clefGv2	*clefG2	*clefG2
*k[b-e-a-]	*k[b-e-a-]	*k[b-e-a-]	*k[b-e-a-]	*k[b-e-a-]
*E-:	*E-:	*E-:	*E-:	*E-:
*M4/4	*M4/4	*M4/4	*M4/4	*M4/4
*met(c)	*met(c)	*met(c)	*met(c)	*met(c)
*MM100	*MM100	*MM100	*MM100	*MM100
=1-	=1-	=1-	=1-	=1-
I	4E-	4B-	4e-	4g
V7	4BB-	4A-	4d	4f
vi	4C	4G	4c	4e-
V6	4D	4F	4B-	4f
=2	=2	=2	=2	=2
I	4E-	4E-	4B-	4g
I6	4GG	4G	4e-	4b-
V7	2BB-	2F	2d	2a-
=3	=3	=3	=3	=3
I;	2EE-;	2E-;	2e-;	2g;
V6	4D	4B-	4f	4b-
I	4E-	4B-	4e-	4g
=4	=4	=4	=4	=4
IV6	4C	4c	4e-	4a-
I	4E-	4B-	4e-	4g
IV	4AA-	4c	4c	4e-
I6	4GG	4B-	4e-	4g
=5	=5	=5	=5	=5
V7	2BB-	2A-	2d	2f
I;	2EE-;	2G;	2B-;	2e-;
=6:|!	=6:|!	=6:|!	=6:|!	=6:|!
*>B	*>B	*>B	*>B	*>B
I	4E-	4e-	4g	4b-
ii7/vi	8DL	8AL	8fL	8ccL
viio6/vi	8DJ	8BJ	8fJ	8ddJ
vi	4C	4c	4e-	4ee-
B-:ii6	4E-	4c	4g	4ee-
=7	=7	=7	=7	=7
VI	4G	4B-X	4g	4dd
VI2	4G	4B-	4d	4cc
ii65	4E-	4B-	4g	4cc
V7	4F	4A	4e-	4cc
=8	=8	=8	=8	=8
I;	2BB-;	2B-;	2d;	2b-;
E-:I	4E-	4G	4e-	4b-
IV	4AA-	4A-X	4e-	4cc
=9	=9	=9	=9	=9
I6	4GG	4B-	4g	4ee-
I6	4GG	4B-	4g	4ee-
B-:I	4BB-	4d	4f	4dd
I6	8DL	8fL	8fL	8b-L
ii65	8E-J	8B-J	8gJ	8ccJ
=10	=10	=10	=10	=10
V7	2FF	2A	2e-	2cc
I;	2BB-;	2B-;	2d;	2b-;
=11	=11	=11	=11	=11
I	4B-	4B-	4d	4f
E-:I6	4G	4B-	4e-	4g
viio6	4F	4A-	4d	4a-
viio	4D	4F	4f	4a-
=12	=12	=12	=12	=12
I	8E-L	8B-L	8e-L	8gL
I	8E-J	8B-J	8gJ	8b-J
ii6	4AA-	4c	4f	4a-
V	4BB-	4d	4d	4f
V;	4BB-;	4B-;	4d;	4f;
=13	=13	=13	=13	=13
iii	4GG	4B-	4d	4b-
vi7	4C	4B-	4e-	4g
ii7	8FFL	8A-L	8e-L	8a-L
viio6	8FFJ	8A-J	8dJ	8a-J
I6	4GG	4B-	4e-	4g
=14	=14	=14	=14	=14
IV	4AA-	4c	4c	4e-
I6	4GG	4B-	4e-	4g
V(54)	4BB-	4B-	4e-	4f
V7	4BB-	4A-	4d	4f
=15	=15	=15	=15	=15
I;	1EE-;	1G;	1B-;	1e-;
==	==	==	==	==
*-	*-	*-	*-	*-
!!!YOR1: 371 vierstimmige Choralges&auml;nge von Johann Sebastian Bach, 
!!!YOR2: 4th ed. by Alfred D&ouml;rffel (Leipzig: Breitkopf und H&auml;rtel, 
!!!YOR2: c.1875). 178 pp. Plate "V.A.10".  reprint: J.S. Bach, 371 Four-Part 
!!!YOR4: Chorales (New York: Associated Music Publishers, Inc., c.1940).
!!!SMS: B&H, 4th ed, Alfred D&ouml;rffel, c.1875, plate V.A.10
!!!EED:  Craig Stuart Sapp
!!!EEV:  2009/05/22
